StripePaymentSheet/StripePaymentSheet/Resources/StripePaymentSheet.xcassets/affirm_mark.imageset/affirm_mark_dark.svg

<svg fill="none" height="18" viewBox="0 0 43 18" width="43" xmlns="http://www.w3.org/2000/svg" xmlns:xlink="http://www.w3.org/1999/xlink"><clipPath id="a"><path d="m0 0h43v18h-43z"/></clipPath><g clip-path="url(#a)" fill="#fff"><g clip-rule="evenodd" fill-rule="evenodd"><path d="m2.81956 16.4495c-.53179 0-.80271-.2747-.80271-.7263 0-.8421.89502-1.1253 2.52752-1.3074 0 1.1221-.72344 2.0337-1.72983 2.0337zm.70237-6.3105c-1.16694 0-2.50846.5758-3.236916 1.1852l.665243 1.4737c.583973-.561 1.528153-1.041 2.380023-1.041.80973 0 1.25724.2842 1.25724.8568 0 .3842-.296.579-.85589.6558-2.09305.2842-3.73358312.8905-3.73358312 2.5821 0 1.3411.91006812 2.1526 2.33186312 2.1526 1.01542 0 1.91847-.5915 2.34791-1.3684v1.1579h1.89238v-4.8516c0-2-1.32346-2.8073-3.04727-2.8073z"/><path d="m22.5149 10.3569v7.4274h2.0248v-3.579c0-1.7.9813-2.2 1.6646-2.2.3076-.0025.609.0909.8659.2684l.3703-1.9631c-.2869-.1205-.5941-.1789-.9031-.1716-1.0405 0-1.6947.4831-2.1261 1.4663v-1.2484z"/><path d="m36.8242 10.1389c-1.0706 0-1.8713.6632-2.2877 1.3032-.3863-.8263-1.2041-1.3032-2.1874-1.3032-1.0696 0-1.8111.6232-2.1532 1.3411v-1.1232h-1.9526v7.4274h2.0268v-3.8242c0-1.3685.6853-2.0306 1.3245-2.0306.5789 0 1.1107.3927 1.1107 1.4064v4.4484h2.0229v-3.8242c0-1.3885.6682-2.0306 1.3375-2.0306.5358 0 1.1037.4085 1.1037 1.3916v4.4632h2.0228v-5.1348c0-1.6684-1.0706-2.5105-2.364-2.5105"/><path d="m17.5873 10.3569h-1.8342v-.75478c0-.98316.5348-1.26316.9953-1.26316.3145.00431.6237.0854.9031.23684l.6241-1.49789s-.6332-.43368-1.784-.43368c-1.2934 0-2.7654.76526-2.7654 3.16631v.54636h-3.0653v-.75478c0-.98316.5338-1.26316.9954-1.26316.315-.00002.6251.08132.903.23684l.6241-1.49789c-.3722-.22842-.9713-.43368-1.783-.43368-1.2934 0-2.76531.76526-2.76531 3.16631v.54636h-1.17196v1.6379h1.17497v5.7894h2.0228v-5.7894h3.0694v5.7894h2.0228v-5.7894h1.8342z"/></g><path d="m20.8162 10.3569h-2.0208v7.4242h2.0208z"/><path clip-rule="evenodd" d="m18.8696 9.09477h1.9797c1.1549-3.80947 5.0731-7.1579 9.7328-7.1579 5.6672 0 10.5647 4.52632 10.5647 11.57263.0172 1.4464-.1722 2.8873-.5619 4.2747h1.9215l.019-.0694c.3238-1.3736.4836-2.7841.4756-4.199 0-7.85787-5.4584-13.51366377-12.4148-13.51366377-5.4645 0-10.3349 3.97894377-11.7156 9.09474377z" fill-rule="evenodd"/></g></svg>

<svg width="43" height="18" viewBox="0 0 43 18" fill="none" xmlns="http://www.w3.org/2000/svg">
<g clip-path="url(#clip0_7_80)">
<path fill-rule="evenodd" clip-rule="evenodd" d="M2.81956 16.4495C2.28777 16.4495 2.01685 16.1748 2.01685 15.7232C2.01685 14.8811 2.91187 14.5979 4.54437 14.4158C4.54437 15.5379 3.82093 16.4495 2.81454 16.4495H2.81956ZM3.52193 10.139C2.35499 10.139 1.01347 10.7148 0.285014 11.3242L0.950257 12.7979C1.53423 12.2369 2.47841 11.7569 3.33028 11.7569C4.14001 11.7569 4.58752 12.0411 4.58752 12.6137C4.58752 12.9979 4.29152 13.1927 3.73163 13.2695C1.63858 13.5537 -0.00195312 14.16 -0.00195312 15.8516C-0.00195312 17.1927 0.908115 18.0042 2.32991 18.0042C3.34533 18.0042 4.24838 17.4127 4.67782 16.6358V17.7937H6.5702V12.9421C6.5702 10.9421 5.24674 10.1348 3.52293 10.1348L3.52193 10.139Z" fill="white"/>
<path fill-rule="evenodd" clip-rule="evenodd" d="M22.5149 10.3569V17.7843H24.5397V14.2053C24.5397 12.5053 25.521 12.0053 26.2043 12.0053C26.5119 12.0028 26.8133 12.0962 27.0702 12.2737L27.4405 10.3106C27.1536 10.1901 26.8464 10.1317 26.5374 10.139C25.4969 10.139 24.8427 10.6221 24.4113 11.6053V10.3569H22.5149Z" fill="white"/>
<path fill-rule="evenodd" clip-rule="evenodd" d="M36.8242 10.1389C35.7536 10.1389 34.9529 10.8021 34.5365 11.4421C34.1502 10.6158 33.3324 10.1389 32.3491 10.1389C31.2795 10.1389 30.538 10.7621 30.1959 11.48V10.3568H28.2433V17.7842H30.2701V13.96C30.2701 12.5915 30.9554 11.9294 31.5946 11.9294C32.1735 11.9294 32.7053 12.3221 32.7053 13.3358V17.7842H34.7282V13.96C34.7282 12.5715 35.3964 11.9294 36.0657 11.9294C36.6015 11.9294 37.1694 12.3379 37.1694 13.321V17.7842H39.1922V12.6494C39.1922 10.981 38.1216 10.1389 36.8282 10.1389" fill="white"/>
<path fill-rule="evenodd" clip-rule="evenodd" d="M17.5873 10.3569H15.7531V9.60212C15.7531 8.61896 16.2879 8.33896 16.7484 8.33896C17.0629 8.34327 17.3721 8.42436 17.6515 8.5758L18.2756 7.07791C18.2756 7.07791 17.6424 6.64423 16.4916 6.64423C15.1982 6.64423 13.7262 7.40949 13.7262 9.81054V10.3569H10.6609V9.60212C10.6609 8.61896 11.1947 8.33896 11.6563 8.33896C11.9713 8.33894 12.2814 8.42028 12.5593 8.5758L13.1834 7.07791C12.8112 6.84949 12.2121 6.64423 11.4004 6.64423C10.107 6.64423 8.63509 7.40949 8.63509 9.81054V10.3569H7.46313V11.9948H8.6381V17.7842H10.6609V11.9948H13.7303V17.7842H15.7531V11.9948H17.5873V10.3569Z" fill="white"/>
<path d="M20.8162 10.3569H18.7954V17.7811H20.8162V10.3569Z" fill="white"/>
<path fill-rule="evenodd" clip-rule="evenodd" d="M18.8696 9.09477H20.8493C22.0042 5.2853 25.9224 1.93687 30.5821 1.93687C36.2493 1.93687 41.1468 6.46319 41.1468 13.5095C41.164 14.9559 40.9746 16.3968 40.5849 17.7842H42.5064L42.5254 17.7148C42.8492 16.3412 43.009 14.9307 43.001 13.5158C43.001 5.65793 37.5426 0.00213623 30.5862 0.00213623C25.1217 0.00213623 20.2513 3.98108 18.8706 9.09688L18.8696 9.09477Z" fill="white"/>
</g>
<defs>
<clipPath id="clip0_7_80">
<rect width="43" height="18" fill="white"/>
</clipPath>
</defs>
</svg>
